svg/black/emc.svg

<svg xmlns="http://www.w3.org/2000/svg" width="32" height="32" viewBox="0 0 32 32">
  <path fill-rule="evenodd" d="M16,32 C7.163444,32 0,24.836556 0,16 C0,7.163444 7.163444,0 16,0 C24.836556,0 32,7.163444 32,16 C32,24.836556 24.836556,32 16,32 Z M8,8 L8,11.2 L14.4,11.2 L14.4,14.4 L8,14.4 L8,17.6 L17.6,17.6 L17.6,11.2 L20.8,11.2 L20.8,20.8 L8,20.8 L8,24 L24,24 L24,8 L8,8 Z"/>
</svg>

<svg xmlns="http://www.w3.org/2000/svg" width="32" height="32"><path fill-rule="evenodd" d="M16 32C7.163 32 0 24.837 0 16S7.163 0 16 0s16 7.163 16 16-7.163 16-16 16zM8 8v3.2h6.4v3.2H8v3.2h9.6v-6.4h3.2v9.6H8V24h16V8H8z"/></svg>
